X:1
T:La Boite a Frissons
M:3/4
L:1/8
S:Lusignac CD Chris Wood and Andy Cutting via uk.music.folk
Z:Robin Beech robin.beech@mcgill.ca
K:Dm
|: DEF DAF | E2 DEFD | AFE DEF | B4 BA | GAB ABG | E2 DEFG |
AGF AGF | E2 GEFE | DEF DAF | E2 DEFD | AFE DEF | B4 BA |
GAB dBG | FEF AGF | EDE GEF |1 D2 A,4 :|2 D2 A,DEF | E6 ||
|:  FEF GAF| GFG ABc| A2 A2 A2| BFD FBF| AFC FAF| GD=B, DGD | E2 EDCD | EDE FGE |
FEF GAF | GFG ABc | A2 A2 A2 | BGB dBG | FEF AGF| EDE GEF|1 D2 A,DEF | E6 :|2 D2 A,4 |]
